X:256
T: EINSAM EINSAM NEIN DAS BIN ICH NICHT
N: F0448
O: Europa, Mitteleuropa, Deutschland
R: Heimat -, Wander - Lied
M: 3/4
L: 1/16
K: A
 | A4B4z4 | c3dd4z4 |
c6e2G2B2 | A8z4 |
F2A2A2A2BAGF | F3EE4z4 |
A2c2dcBce2dB | A3BG4z4 |
A2A2B2A2G2A2 | G4F4z4 |
E2A2c4(3e2d2B2 | A8z4

@@@ Tune index: 5687
